64x64/apps/vivado_logo.svg

<svg xmlns="http://www.w3.org/2000/svg" width="64" height="64" version="1">
 <path style="opacity:0.2" d="M 18,5 21,25.357422 4,40.408203 V 61 L 21,45.949219 41.257812,55.400391 60,46.953125 39.607422,37 36.835938,17.328125 Z"/>
 <path style="fill:#acae26" d="M 36.835256,16.328788 18,4 21,24.356552 22.2,41.8 39.608188,36 Z"/>
 <path style="fill:#7b7c08" d="M 4,39.407642 21,24.356552 32,33.4 21,44.948908 4,60 Z"/>
 <path style="fill:#dbde63" d="M 39.608188,36 60,45.953033 41.258285,54.4 21,44.948908 22.2,27.8 Z"/>
 <path style="opacity:0.2;fill:#f4f4f7" d="M 22.199219 27.800781 L 21 44.949219 L 21.068359 44.980469 L 22.199219 28.800781 L 39.607422 37 L 58.935547 46.433594 L 60 45.953125 L 39.607422 36 L 22.199219 27.800781 z"/>
 <path style="opacity:0.2" d="M 39.607032,37 21,25.357422 V 45.95 Z M 21,45.95 c 0,-0.0011 0,0 0,0 z"/>
 <path style="fill:#f4f4f7" d="M 39.607032,36 21,24.357422 V 44.95 Z M 21,44.95 c 0,-0.0011 0,0 0,0 z"/>
 <path style="opacity:0.2;fill:#f4f4f7" d="M 18 4 L 18.164062 5.1074219 L 36.835938 17.328125 L 39.472656 36.044922 L 39.607422 36 L 36.835938 16.328125 L 18 4 z"/>
 <path style="opacity:0.1;fill:#f4f4f7" d="M 21 24.357422 L 4 39.408203 L 4 40.408203 L 21 25.357422 L 31.464844 33.960938 L 32 33.400391 L 21 24.357422 z"/>
</svg>

<svg xmlns="http://www.w3.org/2000/svg" width="64" height="64" version="1"><path style="opacity:.2" d="m18 5 3 20.357L4 40.408V61l17-15.05 20.258 9.45L60 46.953 39.607 37l-2.771-19.672z"/><path style="fill:#acae26" d="M36.835 16.329 18 4l3 20.357L22.2 41.8 39.608 36z"/><path style="fill:#7b7c08" d="m4 39.408 17-15.051L32 33.4 21 44.949 4 60z"/><path style="fill:#dbde63" d="M39.608 36 60 45.953 41.258 54.4 21 44.949 22.2 27.8z"/><path style="opacity:.2;fill:#f4f4f7" d="M22.2 27.8 21 44.95l.068.03L22.2 28.8 39.607 37l19.329 9.434 1.064-.48L39.607 36 22.2 27.8z"/><path style="opacity:.2" d="M39.607 37 21 25.357V45.95zM21 45.95c0-.001 0 0 0 0z"/><path style="fill:#f4f4f7" d="M39.607 36 21 24.357V44.95zM21 44.95c0-.001 0 0 0 0z"/><path style="opacity:.2;fill:#f4f4f7" d="m18 4 .164 1.107 18.672 12.221 2.637 18.717.134-.045-2.771-19.672L18 4z"/><path style="opacity:.1;fill:#f4f4f7" d="M21 24.357 4 39.408v1l17-15.05 10.465 8.603.535-.56-11-9.044z"/></svg>
